svg/fluentui-system-icons/ic_fluent_flip_horizontal_20_filled.svg

<svg width="20" height="20" viewBox="0 0 20 20" fill="none" xmlns="http://www.w3.org/2000/svg">
<path d="M17.8781 15.6599C17.7396 15.8721 17.5034 16.0001 17.25 16.0001H11.75C11.3358 16.0001 11 15.6643 11 15.2501V2.75007C11 2.39534 11.2485 2.08912 11.5957 2.01612C11.9428 1.94313 12.2936 2.12333 12.4365 2.44802L17.9365 14.948C18.0385 15.1799 18.0166 15.4477 17.8781 15.6599ZM12.5 6.31687V14.5001H16.1006L12.5 6.31687ZM2.5 16C2.32949 16 2.17073 15.9132 2.07883 15.7695C1.98693 15.6259 1.97457 15.4453 2.04602 15.2905L8.04602 2.29052C8.14442 2.07732 8.37792 1.96132 8.60726 2.01169C8.83661 2.06206 9 2.26524 9 2.50005V15.5C9 15.7762 8.77614 16 8.5 16H2.5Z" fill="#212121"/>
</svg>

<svg xmlns="http://www.w3.org/2000/svg" width="20" height="20"><path d="M17.878 15.66a.75.75 0 0 1-.628.34h-5.5a.75.75 0 0 1-.75-.75V2.75a.75.75 0 0 1 1.437-.302l5.5 12.5a.75.75 0 0 1-.059.712ZM12.5 6.317V14.5h3.6l-3.6-8.183ZM2.5 16a.5.5 0 0 1-.454-.71l6-13A.5.5 0 0 1 9 2.5v13a.5.5 0 0 1-.5.5h-6Z"/></svg>
